X:1
T:Turtle in the Grass $1(\251 Ariel Friedman)
M:C|
L:1/8
R:reel
K:D
%%text $1Play pickups.
dc|:"D"B2 A2F3A|"D"E2D4 dc|"D" B2 A2 FA-A2|"G"B6 dc|
"D" B2 A2 F3 A|"D" E2 D2"Bm" B,2 A,B,|"G"DA,DF"A"E2 E2|[1"D"D6 dc:|["2""D"D4-DDEF||
|:"G"G2 A2 "A"B3A|"D"E2 D2-DDEF|"G"G2A2"Em" Bd-d2|"A"c3d cAEF|
"G"G2 A2 "A"B3A|"D"E2 D2"Bm" B,2 A,B,|"G"DA,DF"A"E2 E2|[1"D"D4-DDEF:|[2"D"D6||
["Trans""D7"D6|]
%%vskip 1cm

